X:1
T:Title
%%score { ( 1 3 ) | 2 }
L:1/8
M:4/4
K:Eb
V:1 treble nm="Grand Piano"
V:3 treble 
V:2 bass 
V:1
 z4 z2[Q:1/4=100] E>F | G>G G>A G>F E>G | [GB]6 [EG]>[GB] | [Ge]2 [B,GB]2 [B,EG]2 [B,E]2 | %4
 [B,DF]6 E>F | G2 G2 G>F E>G | [GB]6 [EG]>[GB] | [Ge]2 [GB]2 [EG]2 [DF]2 |[M:3/4] E6 |[M:1/4] G>B | %10
[M:4/4] e6 z2 | B4 G2 z2 | [FA]2 [DF]2 [DB]2 [FA]2 | G6 G>B | e6 z2 | B4 G2 z2 | %16
 B2 GG [CEA][CEA][B,EG][A,DF] |[M:3/4] [G,E]6 |] %18
V:2
 z4 z2 [E,G,]>[E,A,E] | [E,B,E]>[E,B,E] [E,B,E]>[E,CE] [E,B,E]>[E,A,E] [E,G,]>[E,B,E] | %2
 [E,E]6 [E,B,]>[E,B,] | [E,B,]2 E,2 E,2 G,,2 | B,,6 [E,G,]>[E,A,E] | %5
 [E,B,E]2 [E,B,E]2 [E,B,E]>[E,A,E] [E,G,]>[E,B,E] | [E,E]6 [E,B,]>[E,B,] | %7
 [E,B,]2 [E,B,]2 [B,,B,]2 [B,,A,]2 |[M:3/4] [E,G,]6 |[M:1/4] z2 | %10
[M:4/4] z2 [E,B,]>[E,B,] [E,B,]2 z2 | z2 [E,B,]>[E,B,] [E,B,E][E,B,] [B,,B,]>[B,,B,] | %12
 [B,,B,]2 [B,,B,]2 [C,B,]2 [D,B,]2 | [E,B,E]6 z2 | z2 [E,B,]>[E,B,] [E,B,]2 z2 | %15
 z2 [E,B,]>[E,B,] [E,B,E][E,B,] [E,A,E]>[E,A,E] | [E,G,E]2 [E,B,E][E,B,E] A,,A,,B,,B,, | %17
[M:3/4] E,6 |] %18
V:3
 x8 | x8 | x8 | x8 | x8 | x8 | x8 | x8 |[M:3/4] x6 |[M:1/4] x2 |[M:4/4] z2 G>G G2 d>c | %11
 z2 G>G z E [DF]>[EG] | x8 | x8 | z2 G>G G2 d>c | z2 G>G z E c>c | x8 |[M:3/4] x6 |] %18

